austria/municipalities/41229.svg

<?xml version="1.0" encoding="UTF-8"?>
<!DOCTYPE svg PUBLIC "-//W3C//DTD SVG 1.1//EN" "http://www.w3.org/Graphics/SVG/1.1/DTD/svg11.dtd">
<svg xmlns="http://www.w3.org/2000/svg" version="1.1" width="166px" height="205px" style="shape-rendering:geometricPrecision; text-rendering:geometricPrecision; image-rendering:optimizeQuality; fill-rule:evenodd; clip-rule:evenodd" xmlns:xlink="http://www.w3.org/1999/xlink">
<g><path style="opacity:1" fill="#000000" d="M -0.5,-0.5 C 54.8333,-0.5 110.167,-0.5 165.5,-0.5C 165.5,43.5 165.5,87.5 165.5,131.5C 157.83,170.837 134.497,195.17 95.5,204.5C 86.8333,204.5 78.1667,204.5 69.5,204.5C 29.593,194.928 6.25968,169.928 -0.5,129.5C -0.5,86.1667 -0.5,42.8333 -0.5,-0.5 Z"/></g>
<g><path style="opacity:1" fill="#cb0000" d="M 3.5,3.5 C 56.1667,3.5 108.833,3.5 161.5,3.5C 161.667,47.5013 161.5,91.5013 161,135.5C 154.006,167.155 135.173,187.988 104.5,198C 59.5484,206.941 27.3817,190.775 8,149.5C 6.41299,144.232 5.07965,138.899 4,133.5C 3.50001,90.1679 3.33334,46.8346 3.5,3.5 Z"/></g>
<g><path style="opacity:1" fill="#000000" d="M 95.5,161.5 C 95.38,162.586 94.7133,163.253 93.5,163.5C 89.8327,162.728 86.4994,161.395 83.5,159.5C 82.8333,159.5 82.1667,159.5 81.5,159.5C 81.5,157.5 81.5,155.5 81.5,153.5C 79.5,153.5 77.5,153.5 75.5,153.5C 75.1924,155.924 75.5258,158.257 76.5,160.5C 77.7362,159.754 79.0695,159.421 80.5,159.5C 77.362,161.495 73.862,162.828 70,163.5C 68.9701,163.164 68.4701,162.497 68.5,161.5C 70.1667,161.5 71.8333,161.5 73.5,161.5C 73.5,158.833 73.5,156.167 73.5,153.5C 45.8054,148.645 27.9721,132.645 20,105.5C 14.6286,68.0585 29.4619,42.5585 64.5,29C 67.7568,27.9571 71.0901,27.4571 74.5,27.5C 73.3779,18.9422 76.0446,11.9422 82.5,6.5C 88.4862,12.1687 90.8195,19.1687 89.5,27.5C 118.698,31.5214 137.198,47.8547 145,76.5C 150.034,111.938 136.201,136.771 103.5,151C 99.2972,152.569 94.9639,153.402 90.5,153.5C 90.5,156.167 90.5,158.833 90.5,161.5C 92.36,162.071 94.0267,162.071 95.5,161.5 Z"/></g>
<g><path style="opacity:1" fill="#fefffe" d="M 82.5,9.5 C 86.7551,14.2771 88.4218,19.9438 87.5,26.5C 85.8333,26.5 84.1667,26.5 82.5,26.5C 82.5,20.8333 82.5,15.1667 82.5,9.5 Z"/></g>
<g><path style="opacity:1" fill="#fefffe" d="M 79.5,11.5 C 80.4872,16.3054 80.8205,21.3054 80.5,26.5C 79.1667,26.5 77.8333,26.5 76.5,26.5C 76.1218,21.1504 77.1218,16.1504 79.5,11.5 Z"/></g>
<g><path style="opacity:1" fill="#fefefe" d="M 73.5,30.5 C 103.195,28.0919 124.695,40.0919 138,66.5C 149.26,101.735 138.76,128.235 106.5,146C 71.1022,157.213 44.6022,146.713 27,114.5C 15.6396,77.9741 26.8063,51.1408 60.5,34C 64.9288,32.6823 69.2621,31.5156 73.5,30.5 Z"/></g>
<g><path style="opacity:1" fill="#000000" d="M 106.5,38.5 C 98.6815,36.006 90.6815,34.3394 82.5,33.5C 74.3185,34.3394 66.3185,36.006 58.5,38.5C 65.6924,33.9549 73.6924,31.9549 82.5,32.5C 91.2535,32.1102 99.2535,34.1102 106.5,38.5 Z"/></g>
<g><path style="opacity:1" fill="#000000" d="M 58.5,38.5 C 57.4863,39.6737 56.153,40.3404 54.5,40.5C 55.287,38.8958 56.6203,38.2291 58.5,38.5 Z"/></g>
<g><path style="opacity:1" fill="#000000" d="M 106.5,38.5 C 108.38,38.2291 109.713,38.8958 110.5,40.5C 108.62,40.7709 107.287,40.1042 106.5,38.5 Z"/></g>
<g><path style="opacity:1" fill="#000000" d="M 54.5,40.5 C 50.7306,43.428 47.0639,46.5946 43.5,50C 42.6683,50.6877 42.0016,50.521 41.5,49.5C 45.0197,45.3119 49.353,42.3119 54.5,40.5 Z"/></g>
<g><path style="opacity:1" fill="#000000" d="M 54.5,131.5 C 48.9485,128.787 44.4485,124.787 41,119.5C 32.076,104.794 30.076,89.1274 35,72.5C 50.0397,43.1479 73.2064,33.9812 104.5,45C 126.29,57.0801 135.456,75.5801 132,100.5C 126.611,122.556 112.777,135.723 90.5,140C 80.9312,141.152 71.5979,140.152 62.5,137C 59.4006,135.724 56.7339,133.89 54.5,131.5 Z"/></g>
<g><path style="opacity:1" fill="#000000" d="M 110.5,40.5 C 113.267,40.8702 115.267,42.2036 116.5,44.5C 114.147,43.6597 112.147,42.3264 110.5,40.5 Z"/></g>
<g><path style="opacity:1" fill="#fefffe" d="M 54.5,131.5 C 32.109,111.963 27.9424,88.9626 42,62.5C 59.2235,41.6031 80.3902,36.4365 105.5,47C 130.496,63.47 137.33,85.6366 126,113.5C 107.345,139.622 83.5117,145.622 54.5,131.5 Z"/></g>
<g><path style="opacity:1" fill="#000000" d="M 116.5,44.5 C 122.052,47.2126 126.552,51.2126 130,56.5C 131.122,58.4068 131.955,60.4068 132.5,62.5C 127.627,56.0829 122.293,50.0829 116.5,44.5 Z"/></g>
<g><path style="opacity:1" fill="#000000" d="M 36.5,56.5 C 37.0312,54.4559 38.1978,52.7893 40,51.5C 39.9232,53.7715 38.7565,55.4382 36.5,56.5 Z"/></g>
<g><path style="opacity:1" fill="#000000" d="M 36.5,56.5 C 35.6597,58.8525 34.3264,60.8525 32.5,62.5C 32.8702,59.733 34.2036,57.733 36.5,56.5 Z"/></g>
<g><path style="opacity:1" fill="#000000" d="M 32.5,62.5 C 32.3404,64.153 31.6737,65.4863 30.5,66.5C 30.2291,64.6203 30.8958,63.287 32.5,62.5 Z"/></g>
<g><path style="opacity:1" fill="#000000" d="M 132.5,62.5 C 133.885,63.5736 135.051,64.9069 136,66.5C 143.792,87.4384 141.458,107.105 129,125.5C 127.693,127.192 126.193,128.525 124.5,129.5C 140.098,108.772 142.764,86.4385 132.5,62.5 Z"/></g>
<g><path style="opacity:1" fill="#000000" d="M 30.5,66.5 C 25.1935,82.4744 25.1935,98.4744 30.5,114.5C 28.6885,112.615 27.5218,110.281 27,107.5C 23.7028,95.842 23.7028,84.1754 27,72.5C 27.7162,70.1209 28.8828,68.1209 30.5,66.5 Z"/></g>
<g><path style="opacity:1" fill="#000000" d="M 78.5,69.5 C 95.3008,69.4667 103.467,77.8001 103,94.5C 99.3001,106.602 91.1334,112.102 78.5,111C 66.6251,107.125 61.1251,98.9586 62,86.5C 64.3493,77.6522 69.8493,71.9855 78.5,69.5 Z"/></g>
<g><path style="opacity:1" fill="#fefffe" d="M 80.5,70.5 C 98.5153,73.3266 104.682,83.3266 99,100.5C 90.4729,110.608 80.6396,112.108 69.5,105C 60.063,94.7207 60.3964,84.7207 70.5,75C 73.8153,73.1702 77.1486,71.6702 80.5,70.5 Z"/></g>
<g><path style="opacity:1" fill="#003266" d="M 78.5,76.5 C 93.6973,76.8548 98.8639,84.1881 94,98.5C 86.3333,106.5 78.6667,106.5 71,98.5C 66.6313,88.7717 69.1313,81.4384 78.5,76.5 Z"/></g>
<g><path style="opacity:1" fill="#000000" d="M 30.5,114.5 C 33.8259,119.495 37.1592,124.495 40.5,129.5C 35.4168,125.667 32.0835,120.667 30.5,114.5 Z"/></g>
<g><path style="opacity:1" fill="#fefffe" d="M -0.5,129.5 C 6.25968,169.928 29.593,194.928 69.5,204.5C 46.1667,204.5 22.8333,204.5 -0.5,204.5C -0.5,179.5 -0.5,154.5 -0.5,129.5 Z"/></g>
<g><path style="opacity:1" fill="#000000" d="M 40.5,129.5 C 45.8419,133.503 51.1752,137.503 56.5,141.5C 49.7034,139.36 44.3701,135.36 40.5,129.5 Z"/></g>
<g><path style="opacity:1" fill="#000000" d="M 124.5,129.5 C 124.5,130.833 123.833,131.5 122.5,131.5C 122.5,130.167 123.167,129.5 124.5,129.5 Z"/></g>
<g><path style="opacity:1" fill="#000000" d="M 122.5,131.5 C 110.033,144.305 94.6993,149.805 76.5,148C 71.6989,147.622 67.0322,146.622 62.5,145C 59.9746,144.576 57.9746,143.41 56.5,141.5C 80.5612,150.878 102.561,147.545 122.5,131.5 Z"/></g>
<g><path style="opacity:1" fill="#fefffe" d="M 165.5,131.5 C 165.5,155.833 165.5,180.167 165.5,204.5C 142.167,204.5 118.833,204.5 95.5,204.5C 134.497,195.17 157.83,170.837 165.5,131.5 Z"/></g>
<g><path style="opacity:1" fill="#fefffe" d="M 81.5,159.5 C 81.1667,159.5 80.8333,159.5 80.5,159.5C 79.0695,159.421 77.7362,159.754 76.5,160.5C 75.5258,158.257 75.1924,155.924 75.5,153.5C 77.5,153.5 79.5,153.5 81.5,153.5C 81.5,155.5 81.5,157.5 81.5,159.5 Z"/></g>
<g><path style="opacity:1" fill="#fefffe" d="M 83.5,159.5 C 83.5,157.5 83.5,155.5 83.5,153.5C 85.1667,153.5 86.8333,153.5 88.5,153.5C 88.8076,155.924 88.4742,158.257 87.5,160.5C 86.2638,159.754 84.9305,159.421 83.5,159.5 Z"/></g>
<g><path style="opacity:1" fill="#000000" d="M 97.5,159.5 C 102.839,158.368 104.673,160.701 103,166.5C 102.329,167.252 101.496,167.586 100.5,167.5C 103.757,163.184 102.757,160.518 97.5,159.5 Z"/></g>
<g><path style="opacity:1" fill="#000000" d="M 68.5,161.5 C 62.8162,159.85 60.8162,161.85 62.5,167.5C 61.3065,167.03 60.6399,166.03 60.5,164.5C 60.4295,161.404 61.9295,159.738 65,159.5C 66.6991,159.387 67.8658,160.053 68.5,161.5 Z"/></g>
<g><path style="opacity:1" fill="#fe9900" d="M 80.5,159.5 C 80.8333,159.5 81.1667,159.5 81.5,159.5C 82.1667,159.5 82.8333,159.5 83.5,159.5C 86.4994,161.395 89.8327,162.728 93.5,163.5C 94.7133,163.253 95.38,162.586 95.5,161.5C 96.5,161.167 97.1667,160.5 97.5,159.5C 102.757,160.518 103.757,163.184 100.5,167.5C 99.5,167.5 98.5,167.5 97.5,167.5C 97.3893,166.883 97.056,166.383 96.5,166C 84.9793,164.982 73.646,165.482 62.5,167.5C 60.8162,161.85 62.8162,159.85 68.5,161.5C 68.4701,162.497 68.9701,163.164 70,163.5C 73.862,162.828 77.362,161.495 80.5,159.5 Z"/></g>
<g><path style="opacity:1" fill="#000000" d="M 97.5,159.5 C 97.1667,160.5 96.5,161.167 95.5,161.5C 95.5,160.167 96.1667,159.5 97.5,159.5 Z"/></g>
<g><path style="opacity:1" fill="#000000" d="M 97.5,167.5 C 95.396,167.201 93.396,167.534 91.5,168.5C 90.179,173.423 89.179,178.423 88.5,183.5C 92.5153,193.329 89.1819,197.496 78.5,196C 75.3371,192.882 74.6705,189.215 76.5,185C 75.7032,179.456 74.7032,173.956 73.5,168.5C 70.5473,167.32 67.714,167.653 65,169.5C 63.699,169.361 62.8656,168.695 62.5,167.5C 73.646,165.482 84.9793,164.982 96.5,166C 97.056,166.383 97.3893,166.883 97.5,167.5 Z"/></g>
<g><path style="opacity:1" fill="#fe9900" d="M 75.5,167.5 C 79.8839,167.174 84.2172,167.508 88.5,168.5C 86.3333,168.833 84.1667,169.167 82,169.5C 79.3897,169.467 77.223,168.8 75.5,167.5 Z"/></g>
<g><path style="opacity:1" fill="#fe9900" d="M 76.5,171.5 C 80.5546,171.176 84.5546,171.509 88.5,172.5C 88.2907,173.086 87.9574,173.586 87.5,174C 83.8484,174.499 80.1817,174.665 76.5,174.5C 76.5,173.5 76.5,172.5 76.5,171.5 Z"/></g>
<g><path style="opacity:1" fill="#fe9900" d="M 76.5,177.5 C 80.0187,176.192 83.6853,176.192 87.5,177.5C 83.7897,178.758 80.123,178.758 76.5,177.5 Z"/></g>
<g><path style="opacity:1" fill="#fe9900" d="M 77.5,180.5 C 80.5,180.5 83.5,180.5 86.5,180.5C 86.5,181.833 86.5,183.167 86.5,184.5C 83.7531,184.813 81.0865,184.48 78.5,183.5C 77.8728,182.583 77.5394,181.583 77.5,180.5 Z"/></g>
<g><path style="opacity:1" fill="#fe9900" d="M 78.5,186.5 C 81.5719,186.183 84.5719,186.516 87.5,187.5C 88.96,190.288 88.2933,192.455 85.5,194C 78.7632,195.433 76.4299,192.933 78.5,186.5 Z"/></g>
</svg>

<svg xmlns="http://www.w3.org/2000/svg" width="166" height="205" style="shape-rendering:geometricPrecision;text-rendering:geometricPrecision;image-rendering:optimizeQuality;fill-rule:evenodd;clip-rule:evenodd"><path style="opacity:1" d="M-.5-.5h166v132c-7.67 39.337-31.003 63.67-70 73h-26c-39.907-9.572-63.24-34.572-70-75V-.5z"/><path style="opacity:1" fill="#cb0000" d="M3.5 3.5h158c.167 44.001 0 88.001-.5 132-6.994 31.655-25.827 52.488-56.5 62.5-44.952 8.941-77.118-7.225-96.5-48.5a173.132 173.132 0 0 1-4-16c-.5-43.332-.667-86.665-.5-130z"/><path style="opacity:1" d="M95.5 161.5c-.12 1.086-.787 1.753-2 2-3.667-.772-7-2.105-10-4h-2v-6h-6a13.118 13.118 0 0 0 1 7 6.845 6.845 0 0 1 4-1c-3.138 1.995-6.638 3.328-10.5 4-1.03-.336-1.53-1.003-1.5-2h5v-8c-27.695-4.855-45.528-20.855-53.5-48-5.371-37.442 9.462-62.941 44.5-76.5a31.29 31.29 0 0 1 10-1.5c-1.122-8.558 1.545-15.558 8-21 5.986 5.669 8.32 12.669 7 21 29.198 4.021 47.698 20.355 55.5 49 5.034 35.438-8.799 60.271-41.5 74.5a39.385 39.385 0 0 1-13 2.5v8c1.86.571 3.527.571 5 0z"/><path style="opacity:1" fill="#fefffe" d="M82.5 9.5c4.255 4.777 5.922 10.444 5 17h-5v-17zM79.5 11.5c.987 4.805 1.32 9.805 1 15h-4c-.378-5.35.622-10.35 3-15z"/><path style="opacity:1" fill="#fefefe" d="M73.5 30.5c29.695-2.408 51.195 9.592 64.5 36 11.26 35.235.76 61.735-31.5 79.5-35.398 11.213-61.898.713-79.5-31.5-11.36-36.526-.194-63.36 33.5-80.5a249.561 249.561 0 0 1 13-3.5z"/><path style="opacity:1" d="M106.5 38.5a118.588 118.588 0 0 0-24-5 118.588 118.588 0 0 0-24 5c7.192-4.545 15.192-6.545 24-6 8.754-.39 16.754 1.61 24 6zM58.5 38.5c-1.014 1.174-2.347 1.84-4 2 .787-1.604 2.12-2.27 4-2zM106.5 38.5c1.88-.27 3.213.396 4 2-1.88.27-3.213-.396-4-2zM54.5 40.5a142.16 142.16 0 0 0-11 9.5c-.832.688-1.498.521-2-.5 3.52-4.188 7.853-7.188 13-9zM54.5 131.5c-5.551-2.713-10.051-6.713-13.5-12-8.924-14.706-10.924-30.373-6-47C50.04 43.148 73.206 33.981 104.5 45c21.79 12.08 30.956 30.58 27.5 55.5-5.389 22.056-19.223 35.223-41.5 39.5-9.569 1.152-18.902.152-28-3-3.1-1.276-5.766-3.11-8-5.5zM110.5 40.5c2.767.37 4.767 1.704 6 4-2.353-.84-4.353-2.174-6-4z"/><path style="opacity:1" fill="#fefffe" d="M54.5 131.5c-22.391-19.537-26.558-42.537-12.5-69C59.224 41.603 80.39 36.437 105.5 47c24.996 16.47 31.83 38.637 20.5 66.5-18.655 26.122-42.488 32.122-71.5 18z"/><path style="opacity:1" d="M116.5 44.5c5.552 2.713 10.052 6.713 13.5 12a23.417 23.417 0 0 1 2.5 6 155.917 155.917 0 0 0-16-18zM36.5 56.5c.531-2.044 1.698-3.71 3.5-5-.077 2.272-1.243 3.938-3.5 5zM36.5 56.5c-.84 2.352-2.174 4.352-4 6 .37-2.767 1.704-4.767 4-6zM32.5 62.5c-.16 1.653-.826 2.986-2 4-.27-1.88.396-3.213 2-4zM132.5 62.5c1.385 1.074 2.551 2.407 3.5 4 7.792 20.938 5.458 40.605-7 59-1.307 1.692-2.807 3.025-4.5 4 15.598-20.728 18.264-43.061 8-67zM30.5 66.5c-5.306 15.974-5.306 31.974 0 48-1.811-1.885-2.978-4.219-3.5-7-3.297-11.658-3.297-23.325 0-35 .716-2.38 1.883-4.38 3.5-6zM78.5 69.5c16.8-.033 24.967 8.3 24.5 25-3.7 12.102-11.867 17.602-24.5 16.5-11.875-3.875-17.375-12.041-16.5-24.5 2.35-8.848 7.85-14.514 16.5-17z"/><path style="opacity:1" fill="#fefffe" d="M80.5 70.5c18.015 2.827 24.182 12.827 18.5 30-8.527 10.108-18.36 11.608-29.5 4.5-9.437-10.28-9.104-20.28 1-30 3.315-1.83 6.649-3.33 10-4.5z"/><path style="opacity:1" fill="#003266" d="M78.5 76.5c15.197.355 20.364 7.688 15.5 22-7.667 8-15.333 8-23 0-4.369-9.728-1.869-17.062 7.5-22z"/><path style="opacity:1" d="M30.5 114.5c3.326 4.995 6.66 9.995 10 15-5.083-3.833-8.416-8.833-10-15z"/><path style="opacity:1" fill="#fefffe" d="M-.5 129.5c6.76 40.428 30.093 65.428 70 75h-70v-75z"/><path style="opacity:1" d="M40.5 129.5c5.342 4.003 10.675 8.003 16 12-6.797-2.14-12.13-6.14-16-12zM124.5 129.5c0 1.333-.667 2-2 2 0-1.333.667-2 2-2zM122.5 131.5c-12.467 12.805-27.8 18.305-46 16.5a53.93 53.93 0 0 1-14-3c-2.525-.424-4.525-1.59-6-3.5 24.061 9.378 46.061 6.045 66-10z"/><path style="opacity:1" fill="#fefffe" d="M165.5 131.5v73h-70c38.997-9.33 62.33-33.663 70-73zM81.5 159.5h-1a6.845 6.845 0 0 0-4 1 13.118 13.118 0 0 1-1-7h6v6zM83.5 159.5v-6h5a13.118 13.118 0 0 1-1 7 6.845 6.845 0 0 0-4-1z"/><path style="opacity:1" d="M97.5 159.5c5.339-1.132 7.173 1.201 5.5 7-.671.752-1.504 1.086-2.5 1 3.257-4.316 2.257-6.982-3-8zM68.5 161.5c-5.684-1.65-7.684.35-6 6-1.194-.47-1.86-1.47-2-3-.07-3.096 1.43-4.762 4.5-5 1.7-.113 2.866.553 3.5 2z"/><path style="opacity:1" fill="#fe9900" d="M80.5 159.5h3c3 1.895 6.333 3.228 10 4 1.213-.247 1.88-.914 2-2 1-.333 1.667-1 2-2 5.257 1.018 6.257 3.684 3 8h-3c-.11-.617-.444-1.117-1-1.5-11.52-1.018-22.854-.518-34 1.5-1.684-5.65.316-7.65 6-6-.03.997.47 1.664 1.5 2 3.862-.672 7.362-2.005 10.5-4z"/><path style="opacity:1" d="M97.5 159.5c-.333 1-1 1.667-2 2 0-1.333.667-2 2-2zM97.5 167.5a9.86 9.86 0 0 0-6 1 118.353 118.353 0 0 0-3 15c4.015 9.829.682 13.996-10 12.5-3.163-3.118-3.83-6.785-2-11a225.663 225.663 0 0 0-3-16.5c-2.953-1.18-5.786-.847-8.5 1-1.301-.139-2.134-.805-2.5-2 11.146-2.018 22.48-2.518 34-1.5.556.383.89.883 1 1.5z"/><path style="opacity:1" fill="#fe9900" d="M75.5 167.5a43.116 43.116 0 0 1 13 1l-6.5 1c-2.61-.033-4.777-.7-6.5-2zM76.5 171.5a36.877 36.877 0 0 1 12 1 3.646 3.646 0 0 1-1 1.5 60.93 60.93 0 0 1-11 .5v-3zM76.5 177.5c3.519-1.308 7.185-1.308 11 0-3.71 1.258-7.377 1.258-11 0zM77.5 180.5h9v4a16.874 16.874 0 0 1-8-1 5.577 5.577 0 0 1-1-3zM78.5 186.5a21.128 21.128 0 0 1 9 1c1.46 2.788.793 4.955-2 6.5-6.737 1.433-9.07-1.067-7-7.5z"/></svg>
